src/scalable/devices/media-optical.svg

<svg xmlns="http://www.w3.org/2000/svg" width="64" height="64" version="1"><circle cx="32" cy="32" r="27.5" fill="none" stroke="#2c3854" stroke-opacity=".302"/><path d="M32 5A27 27 0 0 0 5 32a27 27 0 0 0 27 27 27 27 0 0 0 27-27A27 27 0 0 0 32 5zm0 16a11 11 0 0 1 11 11 11 11 0 0 1-11 11 11 11 0 0 1-11-11 11 11 0 0 1 11-11z" fill="#fafafa"/><path d="M32 21a11 11 0 0 0-11 11 11 11 0 0 0 11 11 11 11 0 0 0 11-11 11 11 0 0 0-11-11zm0 5.5a5.5 5.5 0 0 1 5.5 5.5 5.5 5.5 0 0 1-5.5 5.5 5.5 5.5 0 0 1-5.5-5.5 5.5 5.5 0 0 1 5.5-5.5z" fill="#fff" fill-opacity=".388"/><circle r="10.5" cy="32" cx="32" fill="none" stroke="#2c3854" stroke-opacity=".302"/><circle cy="32" cx="32" r="5" fill="none" stroke="#2c3854" stroke-opacity=".302"/></svg>

<?xml version="1.0" encoding="UTF-8" standalone="no"?>
<svg
   xmlns:dc="http://purl.org/dc/elements/1.1/"
   xmlns:cc="http://creativecommons.org/ns#"
   xmlns:rdf="http://www.w3.org/1999/02/22-rdf-syntax-ns#"
   xmlns:svg="http://www.w3.org/2000/svg"
   xmlns="http://www.w3.org/2000/svg"
   xmlns:sodipodi="http://sodipodi.sourceforge.net/DTD/sodipodi-0.dtd"
   xmlns:inkscape="http://www.inkscape.org/namespaces/inkscape"
   width="64"
   height="64"
   version="1"
   id="svg10"
   sodipodi:docname="media-optical.svg"
   inkscape:version="0.92.4 (5da689c313, 2019-01-14)">
  <metadata
     id="metadata16">
    <rdf:RDF>
      <cc:Work
         rdf:about="">
        <dc:format>image/svg+xml</dc:format>
        <dc:type
           rdf:resource="http://purl.org/dc/dcmitype/StillImage" />
      </cc:Work>
    </rdf:RDF>
  </metadata>
  <defs
     id="defs14" />
  <sodipodi:namedview
     pagecolor="#ffffff"
     bordercolor="#666666"
     borderopacity="1"
     objecttolerance="10"
     gridtolerance="10"
     guidetolerance="10"
     inkscape:pageopacity="0"
     inkscape:pageshadow="2"
     inkscape:window-width="1366"
     inkscape:window-height="708"
     id="namedview12"
     showgrid="true"
     inkscape:snap-bbox="true"
     inkscape:bbox-nodes="true"
     inkscape:zoom="1.84375"
     inkscape:cx="-170.56674"
     inkscape:cy="43.486462"
     inkscape:window-x="0"
     inkscape:window-y="30"
     inkscape:window-maximized="1"
     inkscape:current-layer="svg10">
    <inkscape:grid
       type="xygrid"
       id="grid825" />
  </sodipodi:namedview>
  <g
     inkscape:label="Layer 1"
     id="layer1-1">
    <g
       id="g4211">
      <circle
         style="opacity:1;fill:none;fill-opacity:1;stroke:#2c3854;stroke-width:1;stroke-linecap:butt;stroke-linejoin:miter;stroke-miterlimit:4;stroke-dasharray:none;stroke-dashoffset:0;stroke-opacity:0.30196078"
         id="path4194"
         cx="32"
         cy="32"
         r="27.5" />
      <path
         id="path4194-0"
         d="M 32,5 A 27,27 0 0 0 5,32 27,27 0 0 0 32,59 27,27 0 0 0 59,32 27,27 0 0 0 32,5 Z m 0,16 A 11,11 0 0 1 43,32 11,11 0 0 1 32,43 11,11 0 0 1 21,32 11,11 0 0 1 32,21 Z"
         style="opacity:1;fill:#fafafa;fill-opacity:1;stroke:none;stroke-width:1;stroke-linecap:butt;stroke-linejoin:miter;stroke-miterlimit:4;stroke-dasharray:none;stroke-dashoffset:0;stroke-opacity:0.78431373"
         inkscape:connector-curvature="0" />
    </g>
    <path
       inkscape:connector-curvature="0"
       id="path4243"
       d="M 32,21 A 11,11 0 0 0 21,32 11,11 0 0 0 32,43 11,11 0 0 0 43,32 11,11 0 0 0 32,21 Z m 0,5.5 A 5.5,5.5 0 0 1 37.5,32 5.5,5.5 0 0 1 32,37.5 5.5,5.5 0 0 1 26.5,32 5.5,5.5 0 0 1 32,26.5 Z"
       style="opacity:1;fill:#ffffff;fill-opacity:0.38775509;stroke:none;stroke-width:1;stroke-linecap:butt;stroke-linejoin:miter;stroke-miterlimit:4;stroke-dasharray:none;stroke-dashoffset:0;stroke-opacity:1" />
    <circle
       r="10.5"
       cy="32"
       cx="32"
       id="path4243-8"
       style="opacity:1;fill:none;fill-opacity:0.49803922;stroke:#2c3854;stroke-width:0.99999994;stroke-linecap:butt;stroke-linejoin:miter;stroke-miterlimit:4;stroke-dasharray:none;stroke-dashoffset:0;stroke-opacity:0.30196078" />
    <circle
       cy="32"
       cx="32"
       id="path4260"
       style="opacity:1;fill:none;fill-opacity:0.49803922;stroke:#2c3854;stroke-width:1;stroke-linecap:butt;stroke-linejoin:miter;stroke-miterlimit:4;stroke-dasharray:none;stroke-dashoffset:0;stroke-opacity:0.30196078"
       r="5.0000005" />
  </g>
</svg>
